img/svg/call-icon.svg

<svg width="32" height="32" viewBox="0 0 32 32" fill="none" xmlns="http://www.w3.org/2000/svg">
<path d="M26.7994 10.2666L25.466 11.5999C27.866 13.9999 27.866 17.7333 25.466 20.2666L26.7994 21.5999C30.1327 18.5333 30.1327 13.4666 26.7994 10.2666ZM23.9993 13.0666L22.666 14.3999C23.3327 15.3333 23.3327 16.5333 22.666 17.4666L23.9993 18.7999C25.5993 17.1999 25.5993 14.7999 23.9993 13.0666ZM18.666 1.33325H5.33268C3.86602 1.33325 2.66602 2.53325 2.66602 3.99992V27.9999C2.66602 29.4666 3.86602 30.6666 5.33268 30.6666H18.666C20.1327 30.6666 21.3327 29.4666 21.3327 27.9999V3.99992C21.3327 2.53325 20.1327 1.33325 18.666 1.33325ZM18.666 26.6666H5.33268V5.33325H18.666V26.6666Z" fill="white"/>
</svg>

<svg width="32" height="32" viewBox="0 0 32 32" fill="none" xmlns="http://www.w3.org/2000/svg"><path d="M26.8 10.267L25.465 11.6c2.4 2.4 2.4 6.133 0 8.667l1.333 1.333c3.334-3.067 3.334-8.133 0-11.333zm-2.8 2.8L22.665 14.4a2.601 2.601 0 010 3.067l1.333 1.333c1.6-1.6 1.6-4 0-5.733zM18.665 1.333H5.333A2.675 2.675 0 002.666 4v24c0 1.467 1.2 2.667 2.667 2.667h13.333c1.467 0 2.667-1.2 2.667-2.667V4c0-1.467-1.2-2.667-2.667-2.667zm0 25.334H5.333V5.333h13.333v21.334z" fill="#fff"/></svg>
